img/LM.svg

<svg fill="none" height="75" viewBox="0 0 75 75" width="75" xmlns="http://www.w3.org/2000/svg" xmlns:xlink="http://www.w3.org/1999/xlink"><mask id="a" height="40" maskUnits="userSpaceOnUse" width="40" x="17" y="18"><path d="m18 19h38v38h-38z" fill="#d9d9d9" stroke="#00008b" stroke-width="2"/></mask><path d="m37.5 74c20.1584 0 36.5-16.3416 36.5-36.5s-16.3416-36.5-36.5-36.5-36.5 16.3416-36.5 36.5 16.3416 36.5 36.5 36.5z" stroke="#fffafa" stroke-width="2"/><g mask="url(#a)"><path d="m49.624 39.957 1.707-1.707h-29.748c-.12 0-.156-.029-.188-.061-.033-.033-.062-.07-.062-.189 0-.12.03-.156.062-.189.032-.032.069-.061.188-.061h29.748l-1.707-1.707-7.792-7.792c-.025-.025-.057-.062-.062-.187-.0026-.026.0005-.0523.009-.077.0126-.0274.0306-.0519.053-.072.075-.075.117-.082.168-.082.05 0 .093.007.168.083l9.916 9.916c.05.05.068.078.072.085.0078.027.0112.055.01.083.0012.028-.0022.0561-.01.083-.0206.0311-.0448.0596-.072.085l-9.916 9.917c-.075.075-.117.082-.168.082-.05 0-.093-.007-.168-.082s-.082-.117-.082-.168.007-.093.082-.168z" fill="#fffafa" stroke="#fffafa" stroke-width="2"/></g></svg>

<svg width="75" height="75" viewBox="0 0 75 75" fill="none" xmlns="http://www.w3.org/2000/svg">
<path d="M37.5 74C57.6584 74 74 57.6584 74 37.5C74 17.3416 57.6584 1 37.5 1C17.3416 1 1 17.3416 1 37.5C1 57.6584 17.3416 74 37.5 74Z" stroke="#FFFAFA" stroke-width="2"/>
<mask id="mask0_140_2" style="mask-type:alpha" maskUnits="userSpaceOnUse" x="17" y="18" width="40" height="40">
<path d="M18 19H56V57H18V19Z" fill="#D9D9D9" stroke="#00008B" stroke-width="2"/>
</mask>
<g mask="url(#mask0_140_2)">
<path d="M49.624 39.957L51.331 38.25H21.583C21.463 38.25 21.427 38.221 21.395 38.189C21.362 38.156 21.333 38.119 21.333 38C21.333 37.88 21.363 37.844 21.395 37.811C21.427 37.779 21.464 37.75 21.583 37.75H51.331L49.624 36.043L41.832 28.251C41.807 28.226 41.775 28.189 41.77 28.064C41.7674 28.038 41.7705 28.0117 41.779 27.987C41.7916 27.9596 41.8096 27.9351 41.832 27.915C41.907 27.84 41.949 27.833 42 27.833C42.05 27.833 42.093 27.84 42.168 27.916L52.084 37.832C52.134 37.882 52.152 37.91 52.156 37.917C52.1638 37.944 52.1672 37.972 52.166 38C52.1672 38.028 52.1638 38.0561 52.156 38.083C52.1354 38.1141 52.1112 38.1426 52.084 38.168L42.168 48.085C42.093 48.16 42.051 48.167 42 48.167C41.95 48.167 41.907 48.16 41.832 48.085C41.757 48.01 41.75 47.968 41.75 47.917C41.75 47.866 41.757 47.824 41.832 47.749L49.624 39.957Z" fill="#FFFAFA" stroke="#FFFAFA" stroke-width="2"/>
</g>
</svg>
